resources/icons/16px/hat.svg

<?xml version="1.0" encoding="UTF-8"?>
<svg width="16px" height="16px" viewBox="0 0 16 16" version="1.1" xmlns="http://www.w3.org/2000/svg" xmlns:xlink="http://www.w3.org/1999/xlink">
    <!-- Generator: Sketch 64 (93537) - https://sketch.com -->
    <title>hat</title>
    <desc>Created with Sketch.</desc>
    <g id="hat" stroke="none" stroke-width="1" fill="none" fill-rule="evenodd">
        <path d="M15,10 C15.4954529,10 15.9330239,10.3785092 15.9930062,10.8817651 L16,11 L16,11.5047055 C16,12.966016 12.4758935,13.9542896 8.29287177,13.9984563 L8,14 C3.68992427,14 -9.30499607e-08,13 -9.30499607e-08,11.5047055 L-9.30499607e-08,11 C-9.30499607e-08,10.438981 0.466435281,10 0.999999907,10 C1.89478205,10 3.99996356,11 7.99999991,11 L8.381208,10.9969454 C12.134595,10.9365245 14.1340818,10 15,10 Z M10.9999999,2 C12.1296188,2 13.0199891,4.15339392 13.6711109,8.46018175 C12.6077753,8.7263752 11.0271025,9.11163789 8.78396252,9.18695827 L8.38120791,9.19694539 L7.99999991,9.2 C5.3357952,9.2 3.51217862,8.75638389 2.32691525,8.46008837 C2.97998302,4.15339392 3.87034464,2 4.99996356,2 C6.99992722,2 6.32860566,4 7.99999991,4 C9.67139416,4 9.00003625,2 10.9999999,2 Z" id="Combined-Shape" fill="#10161A"></path>
    </g>
</svg>

<svg xmlns="http://www.w3.org/2000/svg" viewBox="0 0 16 16">
  <path d="M15 10c.495 0 .933.379.993.882L16 11v.505c0 1.461-3.524 2.45-7.707 2.493L8 14c-4.31 0-8-1-8-2.495V11c0-.561.466-1 1-1 .895 0 3 1 7 1l.381-.003C12.135 10.937 14.134 10 15 10m-4-8q1.695 0 2.671 6.46c-1.063.266-2.644.652-4.887.727l-.403.01L8 9.2c-2.664 0-4.488-.444-5.673-.74Q3.306 2 5 2c2 0 1.329 2 3 2s1-2 3-2"/>
</svg>
